**kern	**kern	**kern
*staff3	*staff2	*staff1
*tb32	*tb32	*tb32
*clefF4	*clefF4	*clefG2
*k[f#c#g#]	*k[f#c#g#]	*k[f#c#g#]
*M2/4	*M2/4	*M2/4
*A:	*A:	*A:
8r	8r	8bb'J
=381	=381	=381
4A	2r	(8.cc#L
.	.	48dd#LL
.	.	48cc#
.	.	48b#
8r	.	8cc#'L)
8A' 8B'	.	8dd#'J
=382	=382	=382
4G# 4B	2r	8ee'L
.	.	8ff#'J
16r	.	8gg#'
*clefG2	*	*
(16eLL	.	.
16f#	.	8r
16g#JJ	.	.
=383	=383	=383
4a')	2r	(8.cc#L
.	.	48dd#LL
.	.	48cc#
.	.	48b#
8r	.	8cc#'L)
8a'	.	8dd#'J
=384	=384	=384
4g#'	2r	8ee'L
.	.	8gg#'J
16r	.	8bb'
*clefF4	*	*
(16ELL	.	.
16F#	.	8r
16G#JJ	.	.
=385	=385	=385
4A')	2r	(8.cc#L
.	.	48dd#LL
.	.	48cc#
.	.	48b#
8r	.	8cc#'L)
8A' 8B'	.	8dd#'J
=386	=386	=386
4G#' 4B'	2r	8ee'L
.	.	8ff#'J
16r	.	8gg#'
*clefG2	*	*
(16eLL	.	.
16f#	.	8r
16g#JJ	.	.
=387	=387	=387
4a')	2r	(8.cc#L
.	.	48dd#LL
.	.	48cc#
.	.	48b#
8r	.	8cc#'L)
8a'	.	8dd#'J
=388	=388	=388
8g#'	2r	(8.eeL
8r	.	.
.	.	48ff#LL
.	.	48ee
.	.	48dd#
8r	.	8ee'L)
8e'	.	8gg#'J
=389	=389	=389
8d#'	2r	(8.bbL
8r	.	.
.	.	48ccc#LL
.	.	48bb
.	.	48aa#
8B'	.	8bb'L)
8r	.	8ddd#'J
=390	=390	=390
2r;	2r;	2r;
*clefF4	*	*
=391	=391	=391
8r	4.r	4.eee
(8e	.	.
8c#L	.	.
*-	*-	*-
